images/mail.svg

<svg width="56" height="56" viewBox="0 0 56 56" fill="none" xmlns="http://www.w3.org/2000/svg">
<path fill-rule="evenodd" clip-rule="evenodd" d="M28 0C43.464 0 56 12.536 56 28C56 43.464 43.464 56 28 56C12.536 56 0 43.464 0 28C0 12.536 12.536 0 28 0ZM32.5641 29.8674C32.3593 29.6767 32.2365 29.6741 32.0285 29.8609C31.4152 30.4113 30.7815 30.9398 30.1532 31.4739C28.6679 32.7366 26.6342 32.7234 25.1737 31.4513C24.5521 30.9097 23.9127 30.3877 23.2934 29.8436C23.1196 29.691 23.0132 29.6866 22.8387 29.8477C19.8094 32.6414 16.7737 35.4284 13.7417 38.2194C13.6659 38.2891 13.5368 38.3384 13.5711 38.5H41.7796C41.7561 38.3379 41.6559 38.2883 41.5835 38.2213C40.6764 37.3814 39.7664 36.5444 38.8591 35.7048C36.7588 33.7611 34.6568 31.8191 32.5641 29.8674ZM44.0222 19.6902C43.947 19.6568 43.889 19.6994 43.836 19.7533L43.774 19.8193L43.7433 19.8485C40.6469 22.4989 37.5554 25.1548 34.4515 27.7966C34.1898 28.0192 34.2224 28.1267 34.4487 28.3343C36.4635 30.1837 38.4688 32.0433 40.4776 33.899C41.5365 34.8773 42.6001 35.8509 43.6548 36.8338C43.8521 37.0181 43.944 37.0043 44.0144 36.741C44.0862 36.473 44.0915 36.2027 44.0915 35.9306C44.0921 33.3323 44.0918 30.734 44.0915 28.1356C44.0914 25.4239 44.0919 22.7121 44.089 20.0002C44.089 19.8932 44.14 19.7427 44.0222 19.6902ZM11.364 19.6927L11.3139 19.7091C11.1338 19.8043 11.2213 20.166 11.221 20.4121C11.2182 22.9873 11.2193 25.5627 11.2193 28.1379C11.2193 30.611 11.2173 33.0841 11.2217 35.5573C11.2222 35.8858 11.2429 36.2154 11.2803 36.5414C11.2972 36.6894 11.2967 36.9 11.4624 36.9491C11.5909 36.987 11.6848 36.8123 11.7833 36.7217C14.8326 33.9187 17.8781 31.1119 20.9325 28.3143C21.1455 28.119 21.1647 28.0155 20.9354 27.8204C17.9093 25.2471 14.8915 22.6643 11.8666 20.0893C11.69 19.9389 11.4968 19.6122 11.3139 19.7091L11.364 19.6927ZM27.6613 17.5L13.8092 17.5008C13.5676 17.5008 13.3241 17.497 13.09 17.5738C13.006 17.6015 12.8867 17.5964 12.8675 17.7005C12.8517 17.7861 12.9542 17.8252 13.0131 17.876C13.4386 18.2416 13.8655 18.6057 14.2918 18.9704C18.4161 22.4981 22.539 26.0272 26.6658 29.5522C27.4607 30.231 27.9229 30.2143 28.7145 29.5358C32.9305 25.9217 37.1489 22.3103 41.3662 18.6977C41.7457 18.3725 42.1227 18.0446 42.5199 17.7014C42.1809 17.4907 41.8441 17.5012 41.5134 17.5012C32.2786 17.4996 23.0439 17.4997 13.8092 17.5008L27.6613 17.5Z" fill="white"/>
</svg>

<svg width="56" height="56" fill="none" xmlns="http://www.w3.org/2000/svg"><path fill-rule="evenodd" clip-rule="evenodd" d="M28 0c15.464 0 28 12.536 28 28S43.464 56 28 56 0 43.464 0 28 12.536 0 28 0zm4.564 29.867c-.205-.19-.328-.193-.535-.006-.614.55-1.248 1.079-1.876 1.613-1.485 1.263-3.519 1.25-4.98-.023-.62-.541-1.26-1.063-1.88-1.607-.173-.153-.28-.157-.454.004-3.03 2.793-6.065 5.58-9.097 8.371-.076.07-.205.12-.17.281H41.78c-.024-.162-.124-.212-.197-.279-.907-.84-1.817-1.677-2.724-2.516-2.1-1.944-4.202-3.886-6.295-5.838zM44.022 19.69c-.075-.033-.133.01-.186.063l-.062.066-.03.03c-3.097 2.65-6.189 5.306-9.292 7.948-.262.222-.23.33-.003.537 2.015 1.85 4.02 3.71 6.029 5.565 1.058.978 2.122 1.952 3.177 2.935.197.184.289.17.36-.093.071-.268.077-.538.077-.81v-7.795c0-2.712 0-5.424-.003-8.136 0-.107.051-.257-.067-.31zm-32.658.003l-.05.016c-.18.095-.093.457-.093.703-.003 2.575-.002 5.15-.002 7.726 0 2.473-.002 4.946.003 7.42 0 .328.02.657.058.983.017.148.017.359.182.408.129.038.223-.137.321-.227 3.05-2.803 6.095-5.61 9.15-8.408.212-.195.232-.299.002-.494-3.026-2.573-6.043-5.156-9.068-7.73-.177-.151-.37-.478-.553-.38l.05-.017zM27.661 17.5H13.81c-.241 0-.485-.003-.719.074-.084.027-.203.022-.223.127-.015.085.087.124.146.175.426.366.853.73 1.279 1.094 4.124 3.528 8.247 7.057 12.374 10.582.795.679 1.257.662 2.049-.016 4.216-3.614 8.434-7.226 12.651-10.838.38-.326.757-.653 1.154-.997-.34-.21-.676-.2-1.007-.2-9.234-.001-18.47-.001-27.704 0l13.852-.001z" fill="#fff"/></svg>
